!! 00000] TT[00
!! NN
!!!OTL: Har ha shi
!!!ARE: Xinjiang, Tacheng (Nord)
!! Ethnic Group: Hasake
!! IV, 499
!!!SCT: C0431
!!!YEM: Copyright 1995, estate of Helmut Schaffrath.
**kern
*ICvox
*Ivox
!! Mixed meters:  2/4; 3/4
*M3/4
*k[f#c#]
*D:
{6d
12f#
12e
12f#
12e
12d
12f#
12g
=1
2.a
=2
*M2/4
8a
8a
[4ee
=3
2ee]
=4
*M3/4
4dd
4dd
4b}
=5
{8dd
8cc#
12b
12a
12b
=6
2f#
4e}
=7
{8d
8g
8f#
4.g
=8
8g
8a
8b
4.dd
=9
8f#
8e
8f#
4.e
=10
2.d}
=11
{8d
[4.b
4b]
=12
8a
[4.dd
4dd]}
=13
*M2/4
{8a
8ccn
4b
=14
8a
8b
12f#
12e
12d
=15
2d}
=16
*M3/4
{8d
8e
8f#
4.g
=17
8g
8a
8b
4.dd
=18
12f#
12e
12f#
4.e
8d
=19
2.d}
==
!!!AGN: Aiqing gequ
!! Vereinzelt Verzierungen, Glissandi.
!!!ONB: ESAC (Essen Associative Code) Database: CHINA
!!!AMT: irregular
!!!AIN: vox
!!!EED: Helmut Schaffrath
!!!EEV: 1.0
*-
!!!ONB: Tied note syntax fixed by Craig Sapp, 2004/05/03/
